packages/svg-icons/src/icons/16px/DecreaseIndent.svg

<svg width="16" height="16" viewBox="0 0 16 16" fill="none" xmlns="http://www.w3.org/2000/svg">
<g clip-path="url(#clip0_4175_45)">
<path fill-rule="evenodd" clip-rule="evenodd" d="M1.7442 13.5059C1.32998 13.5059 0.994198 13.8416 0.994198 14.2559C0.994198 14.6701 1.32998 15.0059 1.7442 15.0059L14.2558 15.0059C14.67 15.0059 15.0058 14.6701 15.0058 14.2559C15.0058 13.8416 14.67 13.5059 14.2558 13.5059L1.7442 13.5059ZM8.69508 9.33545C8.28087 9.33545 7.94508 9.67123 7.94508 10.0854C7.94508 10.4997 8.28087 10.8354 8.69508 10.8354L14.2558 10.8354C14.67 10.8354 15.0058 10.4997 15.0058 10.0854C15.0058 9.67123 14.67 9.33545 14.2558 9.33545L8.69508 9.33545ZM1.7442 0.994139C1.32998 0.994139 0.994198 1.32993 0.994198 1.74414C0.994198 2.15835 1.32998 2.49414 1.7442 2.49414L14.2558 2.49414C14.67 2.49414 15.0058 2.15835 15.0058 1.74414C15.0058 1.32993 14.67 0.994141 14.2558 0.994141L1.7442 0.994139ZM8.11886 5.91455C8.11886 5.50034 8.45465 5.16455 8.86886 5.16455L14.2558 5.16455C14.67 5.16455 15.0058 5.50034 15.0058 5.91455C15.0058 6.32876 14.67 6.66455 14.2558 6.66455L8.86886 6.66455C8.45465 6.66455 8.11886 6.32876 8.11886 5.91455ZM7.88113 7.99902C7.88113 8.41324 7.54534 8.74902 7.13113 8.74902L3.88122 8.74902L5.23138 9.82942C5.55479 10.0882 5.60718 10.5602 5.34838 10.8836C5.08959 11.207 4.61761 11.2594 4.29419 11.0006L1.49244 8.75864C1.00605 8.36944 1.00606 7.62964 1.49244 7.24043L4.2942 4.99847C4.61761 4.73967 5.08959 4.79206 5.34838 5.11547C5.60718 5.43889 5.5548 5.91086 5.23138 6.16966L3.88252 7.24902L7.13113 7.24902C7.54534 7.24902 7.88113 7.58481 7.88113 7.99902Z" fill="#3C3C3C"/>
</g>
<defs>
<clipPath id="clip0_4175_45">
<rect width="16" height="16" fill="white"/>
</clipPath>
</defs>
</svg>

<svg xmlns="http://www.w3.org/2000/svg" width="16" height="16" viewBox="0 0 16 16"><g clip-path="url(#a)"><path fill-rule="evenodd" d="M1.744 13.506a.75.75 0 1 0 0 1.5h12.512a.75.75 0 0 0 0-1.5zm6.951-4.17a.75.75 0 1 0 0 1.5h5.56a.75.75 0 1 0 0-1.5zM1.745.993a.75.75 0 1 0 0 1.5h12.51a.75.75 0 0 0 0-1.5zm6.374 4.92a.75.75 0 0 1 .75-.75h5.387a.75.75 0 0 1 0 1.5H8.869a.75.75 0 0 1-.75-.75M7.88 8a.75.75 0 0 1-.75.75H3.88l1.35 1.08a.75.75 0 1 1-.937 1.172L1.492 8.759a.972.972 0 0 1 0-1.519l2.802-2.242a.75.75 0 1 1 .937 1.172L3.883 7.249H7.13a.75.75 0 0 1 .75.75"/></g><defs><clipPath id="a"><path fill="var(--hop-RichIcon-placeholder-fill, #fff)" d="M0 0h16v16H0z"/></clipPath></defs></svg>
